X:1
T:The City of Refuge
T:The City of Refuge
T:Horace Neely Lincoln
T:Frances Jane (Fanny) Crosby, 1888
T:Public Domain Courtesy of the Cyber Hymnal™
T:Public Domain Courtesy of the Cyber Hymnal™
C:Horace Neely Lincoln
Z:Public Domain
Z:Courtesy of the Cyber Hymnal™
%%score ( 1 2 ) ( 3 4 )
L:1/8
Q:1/4=96
M:4/4
K:B
V:1 treble 
V:2 treble 
V:3 bass 
V:4 bass 
V:1
"^Earnestly and Boldly" !fermata!F | B,C (DE) F2 DF | B2 cA B F2 [B,D] | %3
w: 1.~O,|guil- ty one, * haste to the|ci- ty of re- fuge, Where|
w: 2.~O,|guil- ty one, * haste! for the|day beams are fad- ing, A-|
w: 3.~O,|wea- ry one, * haste! for the|night clouds pur- sue thee; How|
"^Tenderly" [CE]2 [CE][DF] [EA]2 [EA][EG] | F2 [B,F][A,C] [B,D]3 F |"^Pleadingly" (B,C)DE F2 DF | %6
w: mer- cy a- waits thee, so|bound- less and free; O,|haste * with thy bur- den of|
w: far on the des- ert; say,|why wilt thou roam? The|arms * of the Sav- ior will|
w: dark- ly they frown on the|cold moun- tain’s brow; The|voice * of the tem- pest is|
 B2 cA B F2 [EB] |"^Encouragingly" [Fd]2 [Ec][DB] ([FA][EG])[DF][CE] | %8
w: sin and of sor- row; Thy|lov- ing Re- deem- * er is|
w: glad- ly en- fold thee; He|longs with for- give- * ness to|
w: wail- ing a- round thee, And|none but the Sav- * ior can|
 [B,D]2 [A,C]B, !fermata!B, x ||[M:6/8]"^Refrain" F | [Fc]3 [Fd]2 [Ec] | [DB]3 [DF]2 z | %12
w: wait- ing for thee.|O|fly to the|ref- uge!|
w: wel- come thee home.||||
w: shel- ter thee now.||||
 [EG]2 [EA] [DB]2 [Cc] | F6 | [B,D]2 [CE] F2 [F=A] | [EG]3 [EB]3 | [EA]2 [DB] [Fd]2 [Ec] | %17
w: To the ref- uge|sure|and free; With thy|sin and|sor- row; Je- sus|
w: |||||
w: |||||
 B3- [DB]3 |] %18
w: waits for|
w: |
w: |
V:2
 F | B,CDE F2 DF | B2 cA B F2 x | x8 | (DC) x4 F x | B,CDE F2 DF | B2 cA B F2 x | x8 | %8
 x3 B, B, (3(D/F/B/) ||[M:6/8] F | x6 | x6 | x6 | C2 D C3 | x3 (DF) x | x6 | x6 | DCE x3 |] %18
V:3
 !fermata!F, | B,,C, (D,E,) F,2 D,F, | B,2 CA, B, F,2 [F,B,] | %3
w: ~|~ ~ ~ * ~ ~ ~|~ ~ ~ ~ ~ ~|
 [F,A,]2 [F,A,][F,B,] [F,C]2 [F,C][F,B,] | (F,E,)[F,,D,][F,,F,] [B,,F,]3 F, | %5
w: ~ ~ ~ ~ ~ ~|~ * ~ ~ ~ ~|
 (B,,C,)D,E, F,2 D,F, | B,2 CA, B, F,2 [B,,F,] | [B,,F,]2 [B,,F,][B,,F,] [B,,F,]2 [B,,B,][E,G,] | %8
w: ~ * ~ ~ ~ ~ ~|~ ~ ~ ~ ~ ~|~ ~ ~ ~ ~ ~|
 F,2 [F,,E,][F,,D,] !fermata![B,,D,] z ||[M:6/8] F, | [F,A,][F,A,][F,A,] [F,B,][F,B,]F, | %11
w: ~ ~ ~ ~|O|fly to the ci- ty of|
 [B,,F,][B,,F,][B,,F,] [B,,B,]2 z | [E,B,]2 [C,F,] ([C,F,][D,F,])[^E,G,] | [F,A,]2 [F,B,] [F,A,]3 | %14
w: ref- uge to- day;|~ ~ ~ * ~|~ ~ ~|
 [B,,F,][B,,^E,][B,,F,] [B,,B,][C,A,][D,B,] | [E,C][E,^B,][E,C] [E,G,] [E,G,]2 | F,2 F, F,2 F, | %17
w: Come with thy bur- den of|sin and of sor- row;|~ ~ ~ He|
 (F,^E,G, [B,,F,]3) |] %18
w: waits * for thee.|
V:4
 F, | B,,C,D,E, F,2 D,F, | B,2 CA, B, F,2 x | x8 | F,2 x4 F, x | B,,C,D,E, F,2 D,F, | %6
 B,2 CA, B, F,2 x | x8 | F,2 x4 ||[M:6/8] F, | x5 F, | x6 | x6 | x6 | x6 | x6 | F,2 F, F,2 F, | %17
 B,,3- x3 |] %18

